assets/images/img_nav_blue_gray_200.svg

<svg width="20" height="20" viewBox="0 0 20 20" fill="none" xmlns="http://www.w3.org/2000/svg">
<path d="M13.7474 6.8026H6.2474C5.90222 6.8026 5.6224 7.08243 5.6224 7.4276C5.6224 7.77278 5.90222 8.0526 6.2474 8.0526H13.7474C14.0926 8.0526 14.3724 7.77278 14.3724 7.4276C14.3724 7.08243 14.0926 6.8026 13.7474 6.8026Z" fill="#B0B3BC"/>
<path fill-rule="evenodd" clip-rule="evenodd" d="M14.0724 2.9776H14.1641C16.4652 2.9776 18.3307 4.84308 18.3307 7.14427V14.6443C18.3307 16.9455 16.4652 18.8109 14.1641 18.8109H5.83073C4.72566 18.8109 3.66585 18.372 2.88445 17.5905C2.10305 16.8091 1.66406 15.7493 1.66406 14.6443V7.14427C1.66406 4.84308 3.52954 2.9776 5.83073 2.9776H5.90573V1.46094C5.90573 1.11576 6.18555 0.835938 6.53073 0.835938C6.87591 0.835938 7.15573 1.11576 7.15573 1.46094V2.9776H12.8224V1.46094C12.8224 1.11576 13.1022 0.835938 13.4474 0.835938C13.7926 0.835938 14.0724 1.11576 14.0724 1.46094V2.9776ZM14.1641 17.5609C15.7749 17.5609 17.0807 16.2551 17.0807 14.6443V7.14427C17.0807 5.53344 15.7749 4.2276 14.1641 4.2276H5.83073C4.2199 4.2276 2.91406 5.53344 2.91406 7.14427V14.6443C2.91406 16.2551 4.2199 17.5609 5.83073 17.5609H14.1641Z" fill="#B0B3BC"/>
</svg>

<svg xmlns="http://www.w3.org/2000/svg" width="20" height="20" fill="none" viewBox="0 0 20 20"><path fill="#B0B3BC" d="M13.747 6.803h-7.5a.625.625 0 0 0 0 1.25h7.5a.625.625 0 1 0 0-1.25Z"/><path fill="#B0B3BC" fill-rule="evenodd" d="M14.072 2.978h.092a4.167 4.167 0 0 1 4.167 4.166v7.5a4.167 4.167 0 0 1-4.167 4.167H5.831a4.166 4.166 0 0 1-4.167-4.167v-7.5a4.167 4.167 0 0 1 4.167-4.166h.075V1.46a.625.625 0 1 1 1.25 0v1.517h5.666V1.46a.625.625 0 1 1 1.25 0v1.517Zm.092 14.583a2.917 2.917 0 0 0 2.917-2.917v-7.5a2.917 2.917 0 0 0-2.917-2.916H5.831a2.917 2.917 0 0 0-2.917 2.916v7.5a2.917 2.917 0 0 0 2.917 2.917h8.333Z" clip-rule="evenodd"/></svg>
